X:1
T:Frankie and Johnnie
M:4/4
L:1/8
K:C
 CD E A2 G E2| C2 C6| CD E A2 G E2| C6 z C| FG A c2 d A2| c2 c4 AB|\
 c c2 c B2 A2| G2 E2 E2 E2| D8| z2 E3/2 D/2 E E3| C8|
